X:1
T:James Gibb editions
T:Great Father, from Thy throne above - Barnby
%%score [ ( 1 2 ) ( 3 4 ) ]
L:1/8
Q:1/4=63
M:4/4
K:E
V:1 treble nm="Midi_74"
V:2 treble 
V:3 bass nm="Midi_74"
V:4 bass 
V:1
"^Great Father, from Thy throne above""^C.M.""^Joseph Barnby\n(1838-96)" B2 | B2 A2 G2 G2 | %2
w: ||
 G2 F2 E2 || A2 | A2 G2 c2 B2 | A6 ||[M:4/4] c2 B2 e2 d2 | c2 B2 G2 E2 | E2 x4 || E2 E2 F3 F | %10
w: ||||||||
 G6 x2 | A4 G4 || x8 |] %13
w: |A- men.||
V:2
 D2 | E2 F2 E2 B,2 | C2 D2 E2 || E2 | F2 E2 E2 ^E2 | F6 ||[M:4/4] C2 x6 | F2 E2 F2 D2 | E2 D2 E2 || %9
 =D2 x6 | C2 B,2 C2 D2 | E6 x2 || C4 B,4 |] %13
V:3
 B,2 | B,2 B,2 B,2 E,2 | E,2 A,2 G,2 || C2 | B,2 B,2 A,2 C2 | C6 ||[M:4/4] A,2 x6 | %7
 A,2 A,2 A,2 F,2 | B,2 ^B,2 C2 ||"^rall." G,2 x6 | A,2 B,2 A,2 A,2 | G,6 x2 || E,4 E,4 |] %13
V:4
 B,,2 | C,2 D,2 E,2 G,,2 | A,,2 B,,2 C,2 || C,2 | D,2 E,2 A,2 G,2 | F,6 ||[M:4/4] =E,2 x6 | %7
 D,2 C,2 B,,2 A,,2 | G,,2 G,,2 C,2 || B,,2 x6 | A,,2 G,,2 F,,2 B,,2 | E,,6 x2 || A,,4 E,4 |] %13

